X: 131
T: Miss Miller of Glenlee's Reel
C: attr. John French (1753-1803)
R: reel
B: "John French Collection", John French ed. p.13 #1
S: http://www.heallan.com/french.asp
Z: 2012 John Chambers <jc:trillian.mit.edu>
M: 4/4
L: 1/8
K: A
e |\
c(AAc) efec | AEcA B/B/BBd | c(AAc) efeE |1 FdBG A/A/A A :|2 FAEC A,/A,/A, A, ||
D |\
CE-EA FAEA | DFEC B,/B,/B, (B,D) | CE-EA FAEC | DFEC A,/A,/A, A,D |
CE-EA FAEA | DFEC B,/B,/B, (B,D) | CEDF EAdf | ecBc A/A/A A |]

%%sep 2 1 500
%%sep 1 1 500

